X:1
T:title
M:4/4
Q:120
L:1/8
R:Reel
K:C
 ^d'e4A ^d ^B | e'3 ^e _f3 ^f' |  _E3 ^F4 _F | a'3c'2 ^f'3 |  ^bc4 ^Af ^A |  ^g'3 _d2B2 _a | C2 _e4 ^b' ^B |  ^D4 _d'4 | 